X:26
M:3/8
L:1/8
Q:3/8=50
K:G Minor
|:(3d/=e/^f/|gdg/a/|b>ag|fdc|A>GF|1 gdg/a/|b>ag|dg^f|g2:|2

